X: 3
T: MacKinnon's Brook
R: strathspey
M: 4/4
L: 1/8
K: Ador
B|A<aa>g e2 e>d|e<ge>d c>de<g|a<AA>B c>de<a|g>ed<B A2 A:|
|:B|A<AA>B c>de<a|g>de<g d>gB<G|A<AA>B c>de<a|g>ed<B A2 A:|

